svgs/sharp-solid/snowplow.svg

<svg xmlns="http://www.w3.org/2000/svg" viewBox="0 0 640 512"><!--! Font Awesome Pro 6.6.0 by @fontawesome - https://fontawesome.com License - https://fontawesome.com/license (Commercial License) Copyright 2024 Fonticons, Inc. --><path d="M128 0l0 160-64 0 0 138.8C26.2 316.8 0 355.3 0 400c0 61.9 50.1 112 112 112l256 0c61.9 0 112-50.1 112-112c0-17.2-3.9-33.5-10.8-48l42.8 0 0 64 0 13.3 9.4 9.4 64 64 45.3-45.3L576 402.7l0-50.7 0-64 0-52.8L633 164l-50-40-64 80-7 8.8 0 11.2 0 64-64 0 0-64L339.8 0 128 0zM64 400c0-26.5 21.5-48 48-48l256 0c26.5 0 48 21.5 48 48s-21.5 48-48 48l-256 0c-26.5 0-48-21.5-48-48zM380.2 224L256 224l-64-64 0-96 108.2 0 80 160zM120 424a24 24 0 1 0 0-48 24 24 0 1 0 0 48zm264-24a24 24 0 1 0 -48 0 24 24 0 1 0 48 0zM280 424a24 24 0 1 0 0-48 24 24 0 1 0 0 48zm-56-24a24 24 0 1 0 -48 0 24 24 0 1 0 48 0z"/></svg>

<svg xmlns="http://www.w3.org/2000/svg" viewBox="0 0 640 512"><!--! Font Awesome Pro 6.4.0 by @fontawesome - https://fontawesome.com License - https://fontawesome.com/license (Commercial License) Copyright 2023 Fonticons, Inc. --><path d="M128 0V160H64V298.8C26.2 316.8 0 355.3 0 400c0 61.9 50.1 112 112 112H368c61.9 0 112-50.1 112-112c0-17.2-3.9-33.5-10.8-48H512v64 13.3l9.4 9.4 64 64 45.3-45.3L576 402.7V352 288 235.2L633 164l-50-40-64 80-7 8.8V224v64H448V224L339.8 0H128zM64 400c0-26.5 21.5-48 48-48H368c26.5 0 48 21.5 48 48s-21.5 48-48 48H112c-26.5 0-48-21.5-48-48zM380.2 224H256l-64-64V64H300.2l80 160zM120 424a24 24 0 1 0 0-48 24 24 0 1 0 0 48zm264-24a24 24 0 1 0 -48 0 24 24 0 1 0 48 0zM280 424a24 24 0 1 0 0-48 24 24 0 1 0 0 48zm-56-24a24 24 0 1 0 -48 0 24 24 0 1 0 48 0z"/></svg>
